symbolic/32x32/apps/org.gnome.design.SymbolicPreview.svg

<svg xmlns="http://www.w3.org/2000/svg" width="32" height="32" version="1.1">
 <rect style="opacity:0.2" width="27" height="27" x="2" y="4" rx="2.025" ry="2.025"/>
 <rect style="fill:#e4e4e4" width="27" height="27" x="2" y="3" rx="2.025" ry="2.025"/>
 <path style="opacity:0.1" d="M 7.6152344,7.9667969 C 6.7226964,7.9667969 6,8.7243611 6,9.6582031 6,10.144726 6.1959896,10.583979 6.5097656,10.892578 l 2.453125,2.47461 2.5273434,-2.47461 C 11.804021,10.583979 12,10.144726 12,9.6582031 12,8.7243611 11.277304,7.9667969 10.384766,7.9667969 9.7973942,7.9667969 9.282206,8.2955604 9,8.7871094 8.717792,8.2955604 8.2026064,7.9667969 7.6152344,7.9667969 Z M 21,8 c -1.669823,0 -3,1.3779775 -3,3 0,1.622024 1.330177,3 3,3 1.669822,0 3,-1.377975 3,-3 0,-1.6220225 -1.330178,-3 -3,-3 z m 0,1.8007812 c 0.646835,0 1.199219,0.4962688 1.199219,1.1992188 0,0.702952 -0.552384,1.199219 -1.199219,1.199219 -0.646835,0 -1.199219,-0.496266 -1.199219,-1.199219 0,-0.70295 0.552384,-1.1992188 1.199219,-1.1992188 z M 18.5,19 C 17.671485,19 17,19.671485 17,20.5 17,21.328518 17.671485,22 18.5,22 19.328516,22 20,21.328518 20,20.5 20,19.671485 19.328516,19 18.5,19 Z m 5,0 C 22.671485,19 22,19.671485 22,20.5 22,21.328518 22.671485,22 23.5,22 24.328516,22 25,21.328518 25,20.5 25,19.671485 24.328516,19 23.5,19 Z M 8.6542969,19.5 C 7.8831045,19.482312 7.4817735,20.411711 8.0234375,20.960938 L 9.0175781,22 H 5.7753906 c -1.033686,0 -1.033686,2 0,2 h 3.2421875 l -0.9941406,1.039062 c -0.791666,0.828126 0.4505212,2.015626 1.2421875,1.1875 L 12.351562,23 9.265625,19.773438 C 9.107743,19.603765 8.8879595,19.5051 8.65625,19.5 c 0,0 -0.00195,0 -0.00195,0 z M 18.5,24 C 17.671485,24 17,24.671485 17,25.5 17,26.328518 17.671485,27 18.5,27 19.328516,27 20,26.328518 20,25.5 20,24.671485 19.328516,24 18.5,24 Z m 5,0 C 22.671485,24 22,24.671485 22,25.5 22,26.328518 22.671485,27 23.5,27 24.328516,27 25,26.328518 25,25.5 25,24.671485 24.328516,24 23.5,24 Z"/>
 <path style="fill:#5b5b5b" d="M 7.6152344 6.9667969 C 6.7226964 6.9667969 6 7.7243611 6 8.6582031 C 6 9.1447261 6.1959896 9.5839791 6.5097656 9.8925781 L 8.9628906 12.367188 L 11.490234 9.8925781 C 11.804021 9.5839791 12 9.1447261 12 8.6582031 C 12 7.7243611 11.277304 6.9667969 10.384766 6.9667969 C 9.7973942 6.9667969 9.282206 7.2955604 9 7.7871094 C 8.717792 7.2955604 8.2026064 6.9667969 7.6152344 6.9667969 z M 21 7 C 19.330177 7 18 8.3779775 18 10 C 18 11.622024 19.330177 13 21 13 C 22.669822 13 24 11.622025 24 10 C 24 8.3779775 22.669822 7 21 7 z M 21 8.8007812 C 21.646835 8.8007812 22.199219 9.2970505 22.199219 10 C 22.199219 10.702952 21.646835 11.199219 21 11.199219 C 20.353165 11.199219 19.800781 10.702953 19.800781 10 C 19.800781 9.2970505 20.353165 8.8007812 21 8.8007812 z M 18.5 18 C 17.671485 18 17 18.671485 17 19.5 C 17 20.328518 17.671485 21 18.5 21 C 19.328516 21 20 20.328518 20 19.5 C 20 18.671485 19.328516 18 18.5 18 z M 23.5 18 C 22.671485 18 22 18.671485 22 19.5 C 22 20.328518 22.671485 21 23.5 21 C 24.328516 21 25 20.328518 25 19.5 C 25 18.671485 24.328516 18 23.5 18 z M 8.6542969 18.5 C 7.8831045 18.482312 7.4817735 19.411711 8.0234375 19.960938 L 9.0175781 21 L 5.7753906 21 C 4.7417046 21 4.7417046 23 5.7753906 23 L 9.0175781 23 L 8.0234375 24.039062 C 7.2317715 24.867188 8.4739587 26.054688 9.265625 25.226562 L 12.351562 22 L 9.265625 18.773438 C 9.107743 18.603765 8.8879595 18.5051 8.65625 18.5 C 8.65625 18.5 8.6542969 18.5 8.6542969 18.5 z M 18.5 23 C 17.671485 23 17 23.671485 17 24.5 C 17 25.328518 17.671485 26 18.5 26 C 19.328516 26 20 25.328518 20 24.5 C 20 23.671485 19.328516 23 18.5 23 z M 23.5 23 C 22.671485 23 22 23.671485 22 24.5 C 22 25.328518 22.671485 26 23.5 26 C 24.328516 26 25 25.328518 25 24.5 C 25 23.671485 24.328516 23 23.5 23 z"/>
 <path style="fill:#ffffff;opacity:0.2" d="M 4.0253906 3 C 2.9035407 3 2 3.9035407 2 5.0253906 L 2 6.0253906 C 2 4.9035407 2.9035407 4 4.0253906 4 L 26.974609 4 C 28.096459 4 29 4.9035407 29 6.0253906 L 29 5.0253906 C 29 3.9035407 28.096459 3 26.974609 3 L 4.0253906 3 z"/>
</svg>

<svg xmlns="http://www.w3.org/2000/svg" width="32" height="32"><rect style="opacity:.2" width="27" height="27" x="2" y="4" rx="2.025" ry="2.025"/><rect style="fill:#e4e4e4" width="27" height="27" x="2" y="3" rx="2.025" ry="2.025"/><path style="opacity:.1" d="M7.615 7.967C6.723 7.967 6 8.724 6 9.658c0 .487.196.926.51 1.235l2.453 2.474 2.527-2.474c.314-.309.51-.748.51-1.235 0-.934-.723-1.691-1.615-1.691-.588 0-1.103.329-1.385.82a1.601 1.601 0 0 0-1.385-.82zM21 8c-1.67 0-3 1.378-3 3s1.33 3 3 3 3-1.378 3-3-1.33-3-3-3zm0 1.8c.647 0 1.2.497 1.2 1.2s-.553 1.2-1.2 1.2c-.647 0-1.2-.497-1.2-1.2s.553-1.2 1.2-1.2zM18.5 19a1.5 1.5 0 1 0 0 3 1.5 1.5 0 0 0 0-3zm5 0a1.5 1.5 0 1 0 0 3 1.5 1.5 0 0 0 0-3zm-14.846.5c-.77-.018-1.172.912-.63 1.46L9.017 22H5.775c-1.033 0-1.033 2 0 2h3.243l-.995 1.04c-.791.827.451 2.015 1.243 1.187L12.352 23l-3.086-3.227a.858.858 0 0 0-.61-.273h-.002zM18.5 24a1.5 1.5 0 1 0 0 3 1.5 1.5 0 0 0 0-3zm5 0a1.5 1.5 0 1 0 0 3 1.5 1.5 0 0 0 0-3z"/><path style="fill:#5b5b5b" d="M7.615 6.967C6.723 6.967 6 7.724 6 8.658c0 .487.196.926.51 1.235l2.453 2.474 2.527-2.474c.314-.309.51-.748.51-1.235 0-.934-.723-1.691-1.615-1.691-.588 0-1.103.329-1.385.82a1.601 1.601 0 0 0-1.385-.82zM21 7c-1.67 0-3 1.378-3 3s1.33 3 3 3 3-1.378 3-3-1.33-3-3-3zm0 1.8c.647 0 1.2.497 1.2 1.2s-.553 1.2-1.2 1.2c-.647 0-1.2-.497-1.2-1.2s.553-1.2 1.2-1.2zM18.5 18a1.5 1.5 0 1 0 0 3 1.5 1.5 0 0 0 0-3zm5 0a1.5 1.5 0 1 0 0 3 1.5 1.5 0 0 0 0-3zm-14.846.5c-.77-.018-1.172.912-.63 1.46L9.017 21H5.775c-1.033 0-1.033 2 0 2h3.243l-.995 1.04c-.791.827.451 2.015 1.243 1.187L12.352 22l-3.086-3.227a.858.858 0 0 0-.61-.273h-.002zM18.5 23a1.5 1.5 0 1 0 0 3 1.5 1.5 0 0 0 0-3zm5 0a1.5 1.5 0 1 0 0 3 1.5 1.5 0 0 0 0-3z"/><path style="fill:#fff;opacity:.2" d="M4.025 3A2.021 2.021 0 0 0 2 5.025v1C2 4.904 2.904 4 4.025 4h22.95C28.096 4 29 4.904 29 6.025v-1A2.021 2.021 0 0 0 26.975 3H4.025z"/></svg>
